!!!!SEGMENT: pl-wtm--r-241-m_moniuszko-stanislaw--nasza-ziemica.krn
!!!cenid: 18xx:1647
!!!COM: Moniuszko, Stanisław
!!!COM-rismID: pe30008351
!!!CDT: 1819/05/05-1872/06/04
!!!CNT: Polish
!!!OTL: Nasza ziemica
!!!PDT:
!!!AGN: Secular
!!!SMS-siglum: PL-Wtm
!!!SMS-shelfmark: R 241/M
!!!SMS-shelfwork: W
!!!SMS-variant:
!!!SMS-altvar:
!!!NIFC-rismSourceID: 1001063776
!!!NIFC-rismChildID: 1001063776
!!!NIFC-islandoraID:
!!!URL-pdf-islandora:
!!!URL-scan:
!!!ONB-nifc:
!!!OMD: Lento
!!!AIN: 2 empty
!!!key:
**kern	**kern	**dynam	**kern	**text	**text	**dynam
*part2	*part2	*part2	*part1	*part1	*part1	*part1
*staff3	*staff2	*	*staff1	*staff1	*staff1	*
*Iempty	*Iempty	*	*Iempty	*	*	*
*I"	*I"	*	*I"	*	*	*I"
*clefF4	*clefG2	*	*clefG2	*	*	*
*k[b-]	*k[b-]	*	*k[b-]	*	*	*
*f:	*f:	*	*f:	*	*	*
*M4/4	*M4/4	*	*M4/4	*	*	*
*met(c)	*met(c)	*	*met(c)	*	*	*
*>[A,A,B]	*>[A,A,B]	*	*>[A,A,B]	*	*	*
=1!|:	=1!|:	=1!|:	=1!|:	=1!|:	=1!|:	=1!|:
*>A	*>A	*	*>A	*	*	*
!	!	!	!LO:TX:a:i:t=No 22. Nasza Ziemica. W. Syrokomli	!	!	!
[<1F [>1C [1FF	[1f [>1c	.	2r	.	.	.
!	!	!	!LO:TX:a:i:t=ad libitum.	!	!	!
.	.	.	4c/	W oj-	By-	.
.	.	.	8c/	-czy-	-łem	.
.	.	.	8c/	-znie	w bo-	.
=2	=2	=2	=2	=2	=2	=2
1F] 1C] 1FF]	1f] 1c]	.	4f/	mo-	-ga-	.
.	.	.	8f/	-jej	-tych	.
.	.	.	8f/	pu-	Gier-	.
.	.	.	4f/	-sty-	-ma-	.
.	.	.	8e-X/	-nie	-nów	.
.	.	.	8f/	i	oj-	.
=3	=3	=3	=3	=3	=3	=3
1B-X 1G 1GG 1EE-X	1g 1e-X	.	4.g/	ska-	-czy-	.
.	.	.	8g/	-ły,	-źnie,	.
.	.	.	4g/	zie-	tam	.
.	.	.	8f/	-mia	lud	.
.	.	.	8g/	nie	prze-	.
!!LO:LB:g=original
=4	=4	=4	=4	=4	=4	=4
*	*^	*	*	*	*	*
1D- 1AA- 1DD-	2a-X 2f/	1d-X	.	4.a-X/	pło-	-myśl-	.
.	.	.	.	8a-/	-dna	-ny	.
.	2b- 2f-X/	.	.	8.b-\	i	gos-	.
.	.	.	.	16b-\	chroś-	-po-	.
.	.	.	.	8a-/	-cia-	-da-	.
.	.	.	.	8b-\	-ne	-rzy	.
*	*v	*v	*	*	*	*	*
=5	=5	=5	=5	=5	=5	=5
[2AA- 2AAA-/	2cc 2e-X 2c/	.	4cc\	do-	dziel-	.
.	.	.	8a-X/	-my,	-nie	.
.	.	.	8r	.	.	.
2AA-_ 2DD-/	2a-X 2f 2d-X/	.	8r	.	.	.
.	.	.	8cc\	we	tam	.
.	.	.	8b-\	dnie	peł-	.
.	.	.	8a-/	nam	-no	.
=6	=6	=6	=6	=6	=6	=6
2AA-X_ 2AAA-/	[2a-X 2e-X 2c/	.	4a-X/	skwa-	ży-	.
.	.	.	8a-/	-rzą	-cia	.
.	.	.	8a-/	sło-	i	.
2AA-] 2DD-/	2a-] 2f- 2d-X/	.	4cc\	-necz-	lud-	.
.	.	.	8b-\	-ne	-no	.
.	.	.	8a-/	u-	i	.
!!LO:LB:g=original
=7	=7	=7	=7	=7	=7	=7
2AA- 2AAA-/	2a-X 2e-X 2c/	.	4.a-X/	-pa-	żyź-	.
.	.	.	8a-/	-ły,	-nie	.
2BB- 2BBB-/	2f 2d-X 2B-/	.	8r	.	.	.
.	.	.	8a-/	a	tam	.
.	.	.	8g/	w no-	i	.
.	.	.	8f/	-cy	zbyt-	.
=8	=8	=8	=8	=8	=8	=8
*	*	*	*^	*	*	*
2FF/	2f 2c 2A-X/	.	4f\	4.f/	stra-	-kow-	.
.	.	.	8f\	.	-szą	.	.
.	.	.	8f\	8f/	pio-	-ne	.
*2\right	*	*	*	*	*	*	*
2D- 2DD-\	2f 2B- 2F-</	.	4f\	8.f/	ru-	kwit-	.
.	.	.	.	16f/	.	-ną	.
.	.	.	8en\	8en/	-ny	rę-	.
.	.	.	8f\	8f/	i	-ko-	.
*	*	*	*v	*v	*	*	*
=9	=9	=9	=9	=9	=9	=9
!	!	!	!LO:TX:a:i:t=a tempo.	!	!	!
8CC/|	(>2c 2G< 2E</	.	4g/	gro-	dziel-	.
(4C\	.	.	.	.	.	.
.	.	.	8c/	-my	-nie	.
8CC/)	.	.	8r	.	.	.
8CC/|	4d 4A-< 4F</	.	8r	.	.	.
(4C\	.	.	8c/	w pia-	sze-	.
.	4d#X 4An< 4F#X</)	.	8c/	-szczy-	-ro-	.
8CC/)	.	.	8c/	-stych	-ki	.
!!LO:LB:g=original
=10	=10	=10	=10	=10	=10	=10
*	*^	*	*	*	*	*
*	*	*^	*	*	*	*	*
8CC/|	2e 2B-< 2G</	4r	2ryy	.	4.cc\	zas-	han-	.
(4C\	.	.	.	.	.	.	.	.
*	*	*2\right	*	*	*	*	*	*
.	.	(2c\	.	.	.	.	.	.
8CC/)	.	.	.	.	8cc\	-pach	-del,	.
8CC/|	2f/	.	4A-X</	.	8b-\	kwiat-	szyb-	.
(4C\	.	.	.	.	8a-X\	-ka	-kie	.
.	.	4d-X< 4B-< 4E</)	4ryy	.	8g\	nie	pa-	.
8CC/)	.	.	.	.	8f/	o-	-ro-	.
*	*v	*v	*v	*	*	*	*	*
=11	=11	=11	=11	=11	=11	=11
8CC/|	4c< 4G< 4E</	.	4e/	-ba-	-wo-	.
(4C\	.	.	.	.	.	.
.	4e 4c 4G</	.	8g/	-czę,	-zy	.
8CC/)	.	.	8r	.	.	.
8CC/|	4f 4d-X 4A-</	.	4c/	sło-	i	.
(4C\	.	.	.	.	.	.
.	4f#X 4dn 4An</	.	8.c/	-wi-	mu-	.
8CC/)	.	.	.	.	.	.
.	.	.	16c/	-cza	-ro-	.
=12	=12	=12	=12	=12	=12	=12
*	*^	*	*^	*	*	*
*	*	*^	*	*	*	*	*	*
8CC/|	2g/	4e-X\	2B-X</	.	4.cc/	4cc\	piosn-	wa-	.
(4C\	.	.	.	.	.	.	.	.	.
.	.	4en\	.	.	.	8cc\	.	-ne	.
8CC/)	.	.	.	.	8b-X/	8b-X\	-ka	miesz-	.
8CC/|	2f\	4a-X/	2A-X</	.	(8.dd-X\	2ryy	u-	-ka-	.
(4C\	.	.	.	.	.	.	.	.	.
.	.	.	.	.	16cc\)	.	-cha	.	.
.	.	4Bn/	.	.	8a-X/	.	nie	-nia	.
8CC/)	.	.	.	.	8f/	.	po-	czło-	.
*	*	*v	*v	*	*	*	*	*	*
*	*	*	*	*v	*v	*	*	*
!!LO:PB:g=original
=13	=13	=13	=13	=13	=13	=13	=13
8CC/	4e/	2c 2G<\	.	8e/L	-pieś-	-wie-	.
4C\	.	.	.	8f/J	.	.	.
.	[4g/	.	.	4g/	-ci	-cze	.
8CC/	.	.	.	.	.	.	.
8C\	4g/]	2e 2c\	.	8r	.	.	.
4CC/	.	.	.	8g/	sam	a	.
.	8.cc/L	.	.	8.cc\	tyl-	u	.
8C\	.	.	.	.	.	.	.
.	16g/Jk	.	.	16g/	-ko	nas	.
=14	=14	=14	=14	=14	=14	=14	=14
*	*	*^	*	*^	*	*	*
!LO:TX:a:t=P:problem=mixed beam	!	!	!	!	!	!	!	!	!
(>8DD-X/L	(>2b-/	4f\	2B-\	.	(4b-\	2ryy	po-	tyl-	.
8D-X\	.	.	.	.	.	.	.	.	.
8Dn\	.	4a-X 4f\	.	.	8.a-X\)	.	-tok	.	.
!LO:TX:t=cres-cen-do:problem=dynamics with extention lines	!	!	!	!LO:HP:i:t=cres-cen-do.:ext2=cd	!	!	!	!	!
8DDn/J	.	.	.	<	.	.	.	.	.
.	.	.	.	.	16g\	.	gwał-	-ko	.
!LO:TX:a:t=P:problem=mixed beam	!	!	!	!	!	!	!	!	!
8EE-X/L	2b-/	[4g 4e-X\	2ryy	.	4b-/	8.b-\	-tow-	chy-	.
8E-X\	.	.	.	.	.	.	.	.	.
.	.	.	.	.	.	16b-\	.	-ba	.
8En\	.	4g] 4d-X\	.	.	8.a-/	8.a-\	-ny	wilk	.
8EEn/J	.	.	.	.	.	.	.	.	.
.	.	.	.	.	16g/	16g\	sze-	się	.
*	*	*v	*v	*	*	*	*	*	*
*	*	*	*	*v	*v	*	*	*
=15	=15	=15	=15	=15	=15	=15	=15
!LO:TX:a:t=P:problem=mixed beam	!	!	!	!	!	!	!
8FF/L	2a-X 2c/	4f\	.	2a-X\	-leś-	wle-	.
8F\	.	.	.	.	.	.	.
8F#X\	.	4e-X\	.	.	.	.	.
8FF#X/J	.	.	.	.	.	.	.
!LO:TX:a:t=P:problem=mixed beam	!	!	!	!	!	!	!
8GG/L	4g 4d 4Bn/	2ryy	.	16g/	-ci	-cze	.
.	.	.	.	16r	.	.	.
8G\	.	.	.	8c/	i	lub	.
8A-X\	4c/)	.	.	8c/	skal-	się	.
8AA-X/J)	.	.	.	8c/	-ny	wa-	.
!!LO:LB:g=original
=16	=16	=16	=16	=16	=16	=16	=16
!LO:TX:a:t=P:problem=mixed beam	!	!	!	!	!	!	!
8AA/L	2.f/	4e-X 4c\	.	4.f/	o-	-łę-	.
8A\	.	.	.	.	.	.	.
*	*	*2\left	*	*	*	*	*
8B-\	.	(>[2d\	.	.	.	.	.
8BB-/J	.	.	.	8f/	-rzeł	-sa	.
!	!	!	!LO:DY:t=f.	!LO:TX:a:t=ralent:dur=4e:ext=ut:problem=tekst with extention lines	!	!	!
8BBn/	.	.	[ f	8en/	na	pas-	.
(4.Bn\	.	.	.	8f/	ur-	-terz	.
.	8g/L	4f) 4d\]	.	8.g/	-wis-	przez	.
.	8G/J|<	.	.	.	.	.	.
.	.	.	.	16f/	-ka	wą-	.
*	*v	*v	*	*	*	*	*
=17	=17	=17	=17	=17	=17	=17
!	!	!	!LO:TX:a:i:t=a tempo.	!	!	!
8c\)	8e/	sf	4e/	ska-	-wo-	.
!	!	!LO:DY:t=pp.	!	!	!	!
8r	8ccL 8c/|	pp	.	.	.	.
4r	8cc 8c/|	.	4c/	-cze.	-zy.	.
.	8ccJ 8c/|	.	.	.	.	.
8r	8ccL 8c/	.	8r	.	.	.
!	!	!	!LO:TX:a:i:t=dolce, tranquillo.	!	!	!
8cL 8A\|	8cc 8a/|	.	8cc\	Lecz	Lecz	.
8c 8A 8F\|	8a 8f/|	.	8a\	mi-	w mo-	.
8cJ 8B- 8G\|	8b-J 8g/|	.	8b-\	-łe	-im	.
=18	=18	=18	=18	=18	=18	=18
*tremolo	*	*	*	*	*	*
*	*tremolo	*	*	*	*	*
8c 8A 8F\L	8cc 8a 8f/L	.	4cc\	bu-	kra-	.
8c 8A 8F\	8cc 8a 8f/	.	.	.	.	.
8c 8A 8F\	8cc 8a 8f/	.	8cc\	-rze	-ju	.
8c 8A 8F\J	8cc 8a 8f/J	.	8cc\	i	nic	.
8d 8B- 8F\L	8dd 8b- 8f/L	.	4dd\	snież-	ser-	.
8d 8B- 8F\J	8dd 8b- 8f/J	.	.	.	.	.
8cL 8A 8F\	8ccL 8a 8f/	.	8cc\	-ne	-ca	.
8B-J 8G 8F\	8b-J 8g 8f/	.	8b-\	za-	nie	.
!!LO:LB:g=original
=19	=19	=19	=19	=19	=19	=19
*	*	*	*2\right	*	*	*
8c 8A 8F\L	8cc 8a 8f/L	.	2cc\	-mie-	gnie-	.
8c 8A 8F\	8cc 8a 8f/	.	.	.	.	.
8c 8A 8F\	8cc 8a 8f/	.	.	.	.	.
8c 8A 8F\J	8cc 8a 8f/J	.	.	.	.	.
8AL 8F\	8aL 8f/	.	16a\	-cie,	-cie,	.
.	.	.	16r	.	.	.
8c 8A 8F\	8cc 8a/	.	8cc\	mi-	wol-	.
8A 8F\	8a 8f/	.	8a\	-ły	-niej-	.
8B-J 8G 8F\	8b-J 8g 8f/	.	8b-\	oj-	-szy	.
=20	=20	=20	=20	=20	=20	=20
*^	*	*	*	*	*	*
!	!	!	!	!	!	!	!LO:DY:a
8c 8A/L	8F\L	8cc 8a 8f/L	<	4.cc\	-czy-	od-	<
8c 8A/	8F\	8cc 8a 8f/	.	.	.	.	.
8c 8A/	8F\	8cc 8a 8f/	.	.	.	.	.
8c 8A/J	8F\J	8cc 8a 8f/J	.	8cc\	-sty	-dech,	[
*	*Xtremolo	*	*	*	*	*	*
!	!	!	!	!	!	!	!LO:DY:a
8.eL 8.c/	8F\L	(8.eeL 8.cc 8.f/	[	8.ee\	grom	swo-	>
.	8F\	.	>	.	.	.	.
16dK 16B-/	.	16ddJk 16b-/)	.	16dd\	i	-bod-	.
.	.	.	.	8qdd/	.	.	.
8c 8A/	8F\	8ccL 8a 8f/	.	8.cc\	błys-	-niej-	.
.	.	.	]	.	.	.	.
8cnJ 8G#X/	8F\J	8bnJ 8g#X 8f/	.	.	.	.	]
.	.	.	.	16bn\	-ka-	-sze	.
*v	*v	*	*	*	*	*	*
=21	=21	=21	=21	=21	=21	=21
*tremolo	*	*	*	*	*	*
8c 8A 8F\L	8cc 8a 8f/L	.	2cc\	-wi-	li-	.
8c 8A 8F\	8cc 8a 8f/	.	.	.	.	.
8c 8A 8F\	8cc 8a 8f/	.	.	.	.	.
8c 8A 8F\J	8cc 8a 8f/J	.	.	.	.	.
8A 8F\	8aL 8f/	.	16a\	-ce,	-ca	.
*Xtremolo	*Xtremolo	*	*	*	*	*
.	.	.	16r	.	.	.
8cL 8A 8F\	8cc 8a/	.	8cc\	swiat	swiat....	.
8Bn 8G 8F\	8bn 8g 8d/	.	8bn\	ten	.	.
8BJ 8G 8F\	8aJ 8d/	.	8a\	sze-	.	.
!!LO:LB:g=original
=22	=22	=22	=22	=22	=22	=22
8GL 8E\	8g/L	.	4.g/	-ro-	.	.
8E\	8g 8G/	.	.	.	.	.
8G 8D\	8g 8f 8Bn/	.	.	.	.	.
8GJ 8D\	8gJ 8f 8B/	.	8g/	-ki,	.	.
8c:L 8G: 8C:\	8ee:L 8g: 8e:/	.	8.ee\	pię-	.	.
8c 8A 8C\	16r	.	.	.	.	.
.	16ccK 16a/	.	16cc\	-knie	.	.
8B- 8G 8C\	8bn 8g/	.	8bn\	na	.	.
8AJ 8F 8C\	8aJ 8f/	.	8a\	tym	.	.
=23	=23	=23	=23	=23	=23	=23
8GL 8C\	8gL 8e/	.	2g/	swie-	.	.
8G 8C\	8g 8e/	.	.	.	.	.
8G 8D 8BBn\	8g 8f 8d/	.	.	.	.	.
8GJ 8D 8BB\	8gJ 8f 8d/	<	.	.	.	.
8GL 8C\	8gL 8e/	.	16g/	-cie,	.	.
!	!	!	!LO:TX:a:i:t=con anima	!	!	!
.	.	.	16r	.	.	.
8G 8C\	8g 8e/	[	8g/	lecz	.	.
!	!	!	!	!	!	!LO:DY:a
8G 8C\	8cc 8g 8e 8c/	>	8.cc\	nie	.	>
8GJ 8C\	8b-J 8g 8e 8c/	.	.	.	.	.
.	.	.]]	16b-\	ma	.	]]
=24	=24	=24	=24	=24	=24	=24
8F\L	8b-L 8g 8e 8c/	.	4b-\	zie-	.	.
8F\	8b- 8g 8e 8c/	.	.	.	.	.
8c 8F\	8a 8f/	<	8a\	-mi	.	.
8cJ 8F\	8aJ 8f/	.	16r	.	.	.
.	.	[	16a\	nad	.	.
*tremolo	*tremolo	*	*	*	*	*
!	!	!	!	!	!	!LO:DY:a
8c 8A 8D\L	8dd 8a 8f 8d/L	>	4dd\	mo-	.	>
8c 8A 8D\J	8dd 8a 8f 8d/J	.	.	.	.	.
8c 8A 8D\L	8ccL 8f/	]	8.cc\	-ją	.	.
8c 8A 8D\J	8ddJ 8f/	.	.	.	.	]
.	.	.	16dd\	zie-	.	.
!!LO:PB:g=original
=25	=25	=25	=25	=25	=25	=25
8G\L	8cc 8g 8d/L	.	4cc\	-mi-	.	.
8G\J	8cc 8g 8d/J	.	.	.	.	.
8B- 8G\L	8b- 8g 8d/L	.	8b-\	-cę	.	.
8B- 8G\J	8b- 8g 8d/J	.	8r	.	.	.
*Xtremolo	*	*	*	*	*	*
!	!	!LO:DY:t=f.	!	!	!	!
8BB- 8BBB-/	8r	f	8r	.	.	.
!	!	!	!	!	!	!LO:DY:t=f.
8dL 8B- 8G 8F^\	8ffL 8dd 8g 8f/	.	8ff\	lecz	.	f
8e 8c 8G 8F^\	8ee 8cc 8g 8f/	.	8.ee\	nie	.	.
8dJ 8B- 8G 8F^\	8ddJ 8b- 8f/	.	.	.	.	.
.	.	.	16dd\	ma	.	.
=26	=26	=26	=26	=26	=26	=26
*^	*^	*	*	*	*	*
8C 8CC/	2ryy	4dd/	8b- 8g 8e\L	.	4dd\	zie-	.	>
8dL 8B- 8G 8E\	.	.	8b- 8g 8e\J	.	.	.	.	.
*	*	*	*Xtremolo	*	*	*	*	*
8c 8A 8F\	.	8ccL 8a/	8f\L	.	8cc\	-mi	.	]
8cJ 8A 8F\	.	8a/J	8f\J	.	16r	.	.	.
.	.	.	.	.	16a\	nad	.	.
*tremolo	*	*	*tremolo	*	*	*	*	*
8c 8A 8F#X/L	2C\	4cc 4a 4f#X/	8e-X\L	.	4cc\	mo-	.	>
8c 8A 8F#X/J	.	.	8e-\J	.	.	.	.	.
8B-L 8G/	.	8b-/L	8gL 8d\	.	8.b-\	-ją	.	]
8GJ 8C/	.	8g/J	8e-J 8B-\	.	.	.	.	.
.	.	.	.	.	16g\	zie-	.	.
*v	*v	*	*	*	*	*	*	*
*	*v	*v	*	*	*	*	*
=27	=27	=27	=27	=27	=27	=27
8FF 8FFF/	8r	.	4g/	-mi-	.	.
8FL 8E-X 8C 8FF/	8fL 8c 8A/	.	.	.	.	.
8F 8D-X 8BB- 8FF/	8f 8d-X 8B-/	.	4f/	-cę.	.	.
8FJ 8C 8AA 8FF/	8fJ 8e-X 8c/	.	.	.	.	.
8FL 8D-X 8BB-\	8fL 8d-X 8B-/	.	2r	.	.	.
8F 8D- 8BB-\	8f 8d- 8B-/	.	.	.	.	.
8E- 8D- 8BB-\	8e- 8d- 8B-/	.	.	.	.	.
8FJ 8D- 8BB-\	8fJ 8d- 8B-/	.	.	.	.	.
!!LO:LB:g=original
=28	=28	=28	=28	=28	=28	=28
*^	*^	*	*	*	*	*
*	*	*	*tremolo	*	*	*	*	*
8A-X 8E-X/L	4AA-X\	4a-X 4e-X/	8c\L	.	1r	.	.	.
8A-X 8E-X/J	.	.	8c\J	.	.	.	.	.
8B- 8F/L	4D-X\	4b-/	8g\L	.	.	.	.	.
8B- 8F/J	.	.	8f\J	.	.	.	.	.
8A-X 8F/L	4C\	4cc/	8f 8c\L	.	.	.	.	.
8A-X 8F/J	.	.	8f 8c\J	.	.	.	.	.
*Xtremolo	*	*	*	*	*	*	*	*
8GL 8F/	4C\	4cc/	8g 8c\L	.	.	.	.	.
8GJ 8E-/	.	.	8g 8c\J	.	.	.	.	.
*	*	*Xtremolo	*	*	*	*	*	*
*v	*v	*	*	*	*	*	*	*
*	*v	*v	*	*	*	*	*
=29:|!	=29:|!	=29:|!	=29:|!	=29:|!	=29:|!	=29:|!
*>B	*>B	*	*>B	*	*	*
1F 1C 1FF	1f 1c;	.	1r	.	.	.
==	==	==	==	==	==	==
*-	*-	*-	*-	*-	*-	*-
!!!system-decoration: {<s1>(s2,s3)}
!!!RDF**kern: > = above
!!!RDF**kern: < = below
!!!RDF**kern: | = vertical stroke
!!!ENC: Marta Lawrence
!!!END: 2021-04-15
!!!ENC: Berenika Jozajtis
!!!END: 2021-03-29
!!!YEC: Copyright 2022 Narodowy Instytut Fryderyka Chopina (https://polishscores.org)
!!!YEM: License CC-BY-4.0 (https://creativecommons.org/licenses/by/4.0)
